!!!COM:	Compere, Loyset
!!!CDT:	~1445///-1518/08/16
!!!OTL:	Vive le noble roy de France
!!!AGN:	Song; Chanson
!!!SCT:	Com3046
!!!SCA:	Com3046
!!!voices:	3
**kern	**kern	**kern
*staff3	*staff2	*staff1
*Ivox	*Ivox	*Ivox
*I"Bassus	*I"Tenor	*I"Superius
*I'B	*I'T	*I'S
*clefF4	*clefGv2	*clefG2
*k[b-]	*k[b-]	*k[b-]
*M2/1	*M2/1	*M2/1
*met(C|)	*met(C|)	*met(C|)
=1-	=1-	=1-
2r	2r	2r
2F	2F	2f
2.F	2.F	2.f
4C	4G	4e
=2	=2	=2
2F	2A	2f
4E	2B-	2g
4D	.	.
2C	2c	2a
2C	2c	2a
=3	=3	=3
2BB-	1d	1b-
2BB-	.	.
2F	2c	2a
2G	[2B-	[2g
=4	=4	=4
2E	4B-]	4g]
.	4A	4f
2D	4G	1f
.	4F	.
1C	1G	.
.	.	2e
=5	=5	=5
1c	1F	1f
[1F	[1c	[1a
=6	=6	=6
2F]	2c]	2a]
2F	2c	2a
1BB-	1d	1b-
=7	=7	=7
1F	1c	1a
2G	2B-	2g
[2F	[2c	[2a
=8	=8	=8
4F]	4c]	2a]
4G	4B-	.
2E	4A	1g
.	4G	.
1D	1A	.
.	.	2f#i
=9	=9	=9
2r	1G	2.g
2G	.	.
.	.	4a
2E	2G	2b-
2F	[2F	[2a
=10	=10	=10
1D	4F]	2a]
.	4G	.
.	4A	4g
.	4B-	4f
[1C	[1c	[1e
=11	=11	=11
1C]	1c]	1e]
2r	2r	2r
2F	2A	2c
=12	=12	=12
2F	2A	2f
2C	2G	2e
2F	2A	2f
2BB-	2B-	2g
=13	=13	=13
2F	2A	2f
2D	2.d	2.b-
1F	.	.
.	4c	4a
.	4B-	[2a
.	4A	.
=14	=14	=14
1G	1B-	2a]
.	.	2g
1D	1A	1a
=15	=15	=15
2r	2r	2r
2D	2A	2f
2G	2B-	2g
2F	2A	2a
=16	=16	=16
2.BB-	1d	1b-
4C	.	.
4D	2d	1a
4E	.	.
2F	[2c	.
=17	=17	=17
2C	4c]	1g
.	4B-	.
2E	4A	.
.	4G	.
2D	2A	2f
2E	2G	[2g
=18	=18	=18
4C	2.c	4g]
4D	.	4f
2E	.	4e
.	4B-	4d
2F	2A	2c
2D	2F	[2f
=19	=19	=19
1C	1G	2f]
.	.	2e
1F	1F	1f
=20	=20	=20
2r	2r	2r
2D	2A	2f
2G	2B-	2g
2F	2A	2a
=21	=21	=21
2.BB-	1d	1b-
4C	.	.
4D	2d	1a
4E	.	.
2F	[2c	.
=22	=22	=22
2C	4c]	1g
.	4B-	.
2E	4A	.
.	4G	.
2D	2A	2f
2E	2G	[2g
=23	=23	=23
4C	2.c	4g]
4D	.	4f
2E	.	4e
.	4B-	4d
2F	2A	2c
2D	2F	[2f
=24	=24	=24
1C	1G	2f]
.	.	2e
1Fl	1Fl	1fl
==	==	==
*-	*-	*-
!!!RDF**kern: l=long note in original notation
!!!RDF**kern: i=editorial accidental
!!!ENC:	Megan K. Eagen 2013/11/29
!!!END:	2013/11/29/
!!!EED:	Jesse Rodin
!!!EEV:	2014/02/23/
!!!ONB:	Translated from MusicXML and edited on 2014/02/23/ by Craig Sapp
!!muse2ps: C^@{COM}^i2I150v95,95,150Q16
